src/icons/solid/symbols/legal-scale.svg

<svg width="24" height="24" viewBox="0 0 24 24" fill="none" xmlns="http://www.w3.org/2000/svg">
<g clip-path="url(#clip0_402_571)">
<path d="M11.9932 0.999878C12.9509 0.999878 13.7688 1.61186 14.083 2.46375H18.4834C18.7957 2.42628 19.1119 2.57724 19.2646 2.88269L22.916 10.1884C23.1103 10.567 22.957 11.0281 22.5684 11.2225C22.4559 11.2737 22.343 11.3036 22.2305 11.3036H22.2207C21.9446 11.3036 21.6681 11.1502 21.5352 10.8739L18.5771 4.95398L15.6143 10.8846C15.4813 11.1507 15.2048 11.3046 14.9287 11.3046H14.9189C14.8065 11.3046 14.6833 11.2737 14.5811 11.2225C14.2027 11.0281 14.0493 10.5669 14.2334 10.1884L17.3271 3.99792H14.083C13.8573 4.60929 13.3726 5.094 12.7617 5.32019V21.4647H16.3711C16.7902 21.4649 17.1376 21.813 17.1377 22.2323C17.1377 22.6517 16.7902 22.9997 16.3711 22.9999H7.60645C7.18715 22.9999 6.83984 22.6518 6.83984 22.2323C6.8399 21.8128 7.18718 21.4647 7.60645 21.4647H11.2266V5.32117C10.615 5.09515 10.1291 4.60984 9.90332 3.99792H6.6709L9.76465 10.1884C9.95896 10.567 9.80561 11.0281 9.41699 11.2225C9.30451 11.2737 9.19159 11.3036 9.0791 11.3036H9.06934C8.79321 11.3036 8.51674 11.1502 8.38379 10.8739L5.42285 4.94812L2.46191 10.8739C2.32901 11.1399 2.05338 11.3045 1.77734 11.3046H1.7666C1.65431 11.3045 1.53181 11.2736 1.42969 11.2225C1.0513 11.0281 0.89795 10.567 1.08203 10.1884L4.73242 2.88269C4.73355 2.88049 4.7342 2.87804 4.73535 2.87585C4.80827 2.7346 4.92507 2.61307 5.08105 2.53503C5.15645 2.49836 5.23532 2.47703 5.31445 2.4657C5.31869 2.46507 5.3229 2.4643 5.32715 2.46375C5.36604 2.45883 5.40463 2.45791 5.44336 2.45886C5.45864 2.45916 5.47395 2.45863 5.48926 2.45984C5.50331 2.46102 5.51731 2.4618 5.53125 2.46375H9.90332C10.2174 1.61185 11.0355 1.00006 11.9932 0.999878ZM9.06934 11.9999C9.48844 12.0001 9.83594 12.3481 9.83594 12.7675C9.83584 15.2027 7.85187 17.1874 5.41797 17.1874C2.98406 17.1874 1.00009 15.2027 1 12.7675C1 12.3481 1.34749 12.0001 1.7666 11.9999H9.06934ZM22.2246 11.9999C22.6439 11.9999 22.9912 12.3479 22.9912 12.7675C22.9911 15.2027 21.0072 17.1874 18.5732 17.1874C16.1395 17.1871 14.1554 15.2025 14.1553 12.7675C14.1553 12.3479 14.5036 11.9999 14.9229 11.9999H22.2246ZM11.9932 2.53503C11.615 2.53527 11.298 2.84176 11.2979 3.23035C11.2979 3.61904 11.6048 3.92641 11.9932 3.92664C12.3818 3.92664 12.6895 3.61918 12.6895 3.23035C12.6893 2.84161 12.3817 2.53503 11.9932 2.53503Z" fill="#212121"/>
</g>
<defs>
<clipPath id="clip0_402_571">
<rect width="24" height="24" fill="white"/>
</clipPath>
</defs>
</svg>

<svg xmlns="http://www.w3.org/2000/svg" width="24" height="24" fill="none" viewBox="0 0 24 24"><g clip-path="url(#a)"><path fill="currentColor" d="M11.993 1c.958 0 1.776.612 2.09 1.464h4.4a.76.76 0 0 1 .782.419l3.651 7.305a.764.764 0 0 1-.348 1.034.8.8 0 0 1-.338.082h-.01a.76.76 0 0 1-.685-.43l-2.958-5.92-2.963 5.93a.77.77 0 0 1-.685.42h-.01a.8.8 0 0 1-.338-.082.78.78 0 0 1-.348-1.034l3.094-6.19h-3.244a2.24 2.24 0 0 1-1.321 1.322v16.145h3.61c.418 0 .766.348.766.767S16.79 23 16.37 23H7.606a.773.773 0 0 1-.766-.768c0-.42.347-.767.766-.767h3.62V5.32a2.24 2.24 0 0 1-1.323-1.323H6.671l3.094 6.19a.764.764 0 0 1-.348 1.034.8.8 0 0 1-.338.082h-.01a.76.76 0 0 1-.685-.43L5.423 4.948l-2.961 5.926a.78.78 0 0 1-.685.43h-.01a.8.8 0 0 1-.337-.082.78.78 0 0 1-.348-1.034l3.65-7.305.003-.007a.78.78 0 0 1 .346-.341.8.8 0 0 1 .233-.07l.013-.001a1 1 0 0 1 .116-.005h.046l.042.005h4.372A2.23 2.23 0 0 1 11.993 1M9.07 12c.42 0 .767.348.767.768a4.427 4.427 0 0 1-4.418 4.42A4.427 4.427 0 0 1 1 12.767c0-.42.347-.768.767-.768zm13.156 0c.419 0 .766.348.766.768a4.427 4.427 0 0 1-4.418 4.42 4.427 4.427 0 0 1-4.418-4.42c0-.42.349-.768.768-.768zM11.993 2.535a.696.696 0 1 0 .002 1.393.696.696 0 0 0-.002-1.393"/></g><defs><clipPath id="a"><path fill="currentColor" d="M0 0h24v24H0z"/></clipPath></defs></svg>
